assets/icons/24px/stroke/rectangle-on-rectangle-vertical-24px.svg

<svg width="24" height="24" viewBox="0 0 24 24" fill="none" xmlns="http://www.w3.org/2000/svg">
<path fill-rule="evenodd" clip-rule="evenodd" d="M12.9346 6C12.9564 6 12.9784 6 13.0004 6L17.0655 6C17.9521 5.99995 18.716 5.99991 19.3277 6.08214C19.9832 6.17027 20.6116 6.369 21.1213 6.87868C21.631 7.38835 21.8297 8.0167 21.9179 8.67221C22.0001 9.28387 22.0001 10.0477 22 10.9342V17.0658C22.0001 17.9523 22.0001 18.7161 21.9179 19.3278C21.8297 19.9833 21.631 20.6117 21.1213 21.1213C20.6117 21.631 19.9833 21.8297 19.3278 21.9179C18.7161 22.0001 17.9523 22.0001 17.0658 22H12.9342C12.0477 22.0001 11.2839 22.0001 10.6722 21.9179C10.0167 21.8297 9.38835 21.631 8.87868 21.1213C8.36902 20.6117 8.17028 19.9833 8.08215 19.3278C7.99991 18.7161 7.99995 17.9523 8 17.0658L8 11C8 10.978 8 10.956 8 10.9342C7.99995 10.0477 7.99991 9.28387 8.08215 8.67221C8.17028 8.0167 8.36902 7.38835 8.87868 6.87868C9.38837 6.369 10.0168 6.17027 10.6723 6.08214C11.284 5.99991 12.0479 5.99995 12.9346 6ZM10.9388 8.06431C10.505 8.12263 10.369 8.21679 10.2929 8.2929C10.2168 8.36902 10.1226 8.50497 10.0643 8.93871C10.0021 9.40121 10 10.0289 10 11V17C10 17.9711 10.0021 18.5988 10.0643 19.0613C10.1226 19.495 10.2168 19.631 10.2929 19.7071C10.369 19.7832 10.505 19.8774 10.9387 19.9357C11.4012 19.9979 12.0289 20 13 20H17C17.9711 20 18.5988 19.9979 19.0613 19.9357C19.495 19.8774 19.631 19.7832 19.7071 19.7071C19.7832 19.631 19.8774 19.495 19.9357 19.0613C19.9979 18.5988 20 17.9711 20 17V11C20 10.0289 19.9979 9.40122 19.9357 8.93871C19.8774 8.50497 19.7832 8.36902 19.7071 8.2929C19.631 8.21679 19.4951 8.12263 19.0612 8.06431C18.5986 8.00213 17.9708 8 16.9996 8H13.0004C12.0292 8 11.4014 8.00213 10.9388 8.06431Z" fill="white"/>
<path fill-rule="evenodd" clip-rule="evenodd" d="M7.93456 2C7.95643 2 7.97837 2 8.00039 2L12.0655 2C12.9521 1.99995 13.716 1.99991 14.3277 2.08214C14.9832 2.17027 15.6116 2.369 16.1213 2.87868C16.631 3.38835 16.8297 4.0167 16.9179 4.67221C17.0001 5.28387 17.0001 6.04769 17 6.93417L17 7H15C15 6.02893 14.9979 5.40122 14.9357 4.93871C14.8774 4.50497 14.7832 4.36902 14.7071 4.2929C14.631 4.21679 14.4951 4.12263 14.0612 4.06431C13.5986 4.00213 12.9708 4 11.9996 4H8.00039C7.02918 4 6.40137 4.00213 5.93879 4.06431C5.50496 4.12263 5.369 4.21679 5.2929 4.2929C5.21677 4.36902 5.12263 4.50497 5.06431 4.93871C5.00213 5.40121 5 6.02893 5 7V13C5 13.9711 5.00213 14.5988 5.06431 15.0613C5.12263 15.495 5.21677 15.631 5.2929 15.7071C5.36902 15.7832 5.50497 15.8774 5.93871 15.9357C6.40122 15.9979 7.02893 16 8 16H9V18L7.93417 18C7.04769 18.0001 6.28387 18.0001 5.67221 17.9179C5.0167 17.8297 4.38835 17.631 3.87868 17.1213C3.36902 16.6117 3.17028 15.9833 3.08215 15.3278C2.99991 14.7161 2.99995 13.9523 3 13.0658L3 7C3 6.97799 3 6.95604 3 6.93417C2.99995 6.04769 2.99991 5.28387 3.08215 4.67221C3.17028 4.0167 3.36902 3.38835 3.87868 2.87868C4.38837 2.369 5.01677 2.17027 5.67232 2.08214C6.28404 1.99991 7.04794 1.99995 7.93456 2Z" fill="white"/>
</svg>

<svg width="24" height="24" fill="none" xmlns="http://www.w3.org/2000/svg"><path fill-rule="evenodd" clip-rule="evenodd" d="M12.935 6h4.131c.886 0 1.65 0 2.262.082.655.088 1.284.287 1.793.797.51.51.709 1.138.797 1.793.082.612.082 1.376.082 2.262v6.132c0 .886 0 1.65-.082 2.262-.088.655-.287 1.284-.797 1.793-.51.51-1.138.709-1.793.797-.612.082-1.376.082-2.262.082h-4.132c-.886 0-1.65 0-2.262-.082-.655-.088-1.284-.287-1.793-.797-.51-.51-.709-1.138-.797-1.793C8 18.716 8 17.952 8 17.066V11v-.066c0-.886 0-1.65.082-2.262.088-.655.287-1.284.797-1.793.51-.51 1.138-.709 1.793-.797C11.284 6 12.048 6 12.935 6zm-1.996 2.064c-.434.059-.57.153-.646.229-.076.076-.17.212-.229.646C10.002 9.4 10 10.029 10 11v6c0 .971.002 1.599.064 2.061.059.434.153.57.229.646.076.076.212.17.646.229.462.062 1.09.064 2.061.064h4c.971 0 1.599-.002 2.061-.064.434-.059.57-.153.646-.229.076-.076.17-.212.229-.646.062-.462.064-1.09.064-2.061v-6c0-.971-.002-1.599-.064-2.061-.059-.434-.153-.57-.229-.646-.076-.076-.212-.17-.646-.229C18.6 8.002 17.971 8 17 8h-4c-.97 0-1.599.002-2.061.064z" fill="#fff"/><path fill-rule="evenodd" clip-rule="evenodd" d="M7.935 2h4.131c.886 0 1.65 0 2.262.082.655.088 1.284.287 1.793.797.51.51.709 1.138.797 1.793C17 5.284 17 6.048 17 6.934V7h-2c0-.971-.002-1.599-.064-2.061-.059-.434-.153-.57-.229-.646-.076-.076-.212-.17-.646-.229C13.6 4.002 12.971 4 12 4H8c-.97 0-1.599.002-2.061.064-.434.059-.57.153-.646.229-.076.076-.17.212-.229.646C5.002 5.4 5 6.029 5 7v6c0 .971.002 1.599.064 2.061.059.434.153.57.229.646.076.076.212.17.646.229C6.4 15.998 7.029 16 8 16h1v2H7.934c-.886 0-1.65 0-2.262-.082-.655-.088-1.284-.287-1.793-.797-.51-.51-.709-1.138-.797-1.793C3 14.716 3 13.952 3 13.066V7v-.066c0-.886 0-1.65.082-2.262.088-.655.287-1.284.797-1.793.51-.51 1.138-.709 1.793-.797C6.284 2 7.048 2 7.935 2z" fill="#fff"/></svg>
